dist/assets/images/icons/2.svg

<svg id="b6117b06-2b45-45bc-b789-4a82ab6612dd" data-name="Layer 1" xmlns="http://www.w3.org/2000/svg" width="1139.17088" height="654.54324" viewBox="0 0 1139.17088 654.54324"><title>progressive_app</title><circle cx="246.82682" cy="521.76476" r="59.24334" fill="#f2f2f2"/><circle cx="256.45989" cy="513.095" r="59.24334" fill="#892cdc"/><rect x="304.17137" y="447.54324" width="732.99951" height="2" fill="#3f3d56"/><path d="M714.20735,141.38055H454.03775v-5.36232h-117.971v5.36232H74.82467a17.5985,17.5985,0,0,0-17.59852,17.59851V515.23125a17.59856,17.59856,0,0,0,17.59852,17.59858H714.20735a17.59856,17.59856,0,0,0,17.59852-17.59858V158.97906A17.5985,17.5985,0,0,0,714.20735,141.38055Z" transform="translate(-30.41456 -122.72838)" fill="#3f3d56"/><rect x="50.4058" y="49.75362" width="627.3913" height="353.91304" fill="#892cdc"/><circle cx="363.56522" cy="33.66667" r="6.43478" fill="#892cdc"/><polygon points="498.374 403.667 50.406 403.667 50.406 49.754 498.374 403.667" opacity="0.1"/><circle cx="148.57375" cy="316.87641" r="60.3068" fill="#f2f2f2"/><rect x="509.95272" y="240.62175" width="58.6052" height="12.24586" fill="#3f3d56"/><rect x="439.10165" y="145.27896" width="200.30733" height="5.24823" fill="#3f3d56"/><rect x="439.10165" y="161.89834" width="200.30733" height="5.24823" fill="#3f3d56"/><rect x="439.10165" y="178.51773" width="200.30733" height="5.24823" fill="#3f3d56"/><rect x="439.10165" y="195.13711" width="200.30733" height="5.24823" fill="#3f3d56"/><rect x="439.10165" y="211.7565" width="200.30733" height="5.24823" fill="#3f3d56"/><rect x="614.91726" y="56.9338" width="24.49173" height="24.49173" fill="#f2f2f2"/><path d="M681.1947,215.52507h-29.74v-29.74h29.74Zm-28.44691-1.293h27.15387V187.07816H652.74779Z" transform="translate(-30.41456 -122.72838)" fill="#3f3d56"/><path d="M749.42165,519.96024H688.19234v-4.41153a.87468.87468,0,0,0-.87471-.87471h-20.9929a.87468.87468,0,0,0-.87471.87471v4.41153H652.32945v-4.41153a.87467.87467,0,0,0-.8747-.87471H630.46184a.87468.87468,0,0,0-.8747.87471v4.41153H616.46657v-4.41153a.87468.87468,0,0,0-.8747-.87471H594.599a.87468.87468,0,0,0-.87471.87471v4.41153H580.60369v-4.41153a.87468.87468,0,0,0-.87471-.87471H558.73607a.87468.87468,0,0,0-.8747.87471v4.41153H544.7408v-4.41153a.87468.87468,0,0,0-.8747-.87471H522.87319a.87467.87467,0,0,0-.8747.87471v4.41153H508.87792v-4.41153a.87468.87468,0,0,0-.87471-.87471h-20.9929a.87468.87468,0,0,0-.87471.87471v4.41153H473.015v-4.41153a.87468.87468,0,0,0-.8747-.87471H307.69588a.87468.87468,0,0,0-.8747.87471v4.41153H293.70061v-4.41153a.87468.87468,0,0,0-.8747-.87471H271.833a.87467.87467,0,0,0-.8747.87471v4.41153H257.83773v-4.41153a.87468.87468,0,0,0-.87471-.87471h-20.9929a.87468.87468,0,0,0-.87471.87471v4.41153H221.97484v-4.41153a.87467.87467,0,0,0-.8747-.87471H200.10723a.87468.87468,0,0,0-.8747.87471v4.41153H186.112v-4.41153a.87468.87468,0,0,0-.8747-.87471H164.24435a.87468.87468,0,0,0-.87471.87471v4.41153H150.24908v-4.41153a.87468.87468,0,0,0-.87471-.87471H128.38146a.87468.87468,0,0,0-.8747.87471v4.41153H114.38619v-4.41153a.87468.87468,0,0,0-.8747-.87471H92.51858a.87467.87467,0,0,0-.8747.87471v4.41153H51.40747a20.99293,20.99293,0,0,0-20.99291,20.99291v9.4925A20.99291,20.99291,0,0,0,51.40747,571.4385H749.42165a20.9929,20.9929,0,0,0,20.99291-20.99285v-9.4925A20.99292,20.99292,0,0,0,749.42165,519.96024Z" transform="translate(-30.41456 -122.72838)" fill="#3f3d56"/><path d="M193.58593,477.27162a76,76,0,1,1,76-76A76.08614,76.08614,0,0,1,193.58593,477.27162Zm0-150a74,74,0,1,0,74,74A74.08385,74.08385,0,0,0,193.58593,327.27162Z" transform="translate(-30.41456 -122.72838)" fill="#3f3d56"/><rect x="586.17137" y="32.54324" width="254.99951" height="2" fill="#3f3d56"/><rect x="406.17137" y="560.54324" width="732.99951" height="2" fill="#3f3d56"/><rect x="192.67161" y="652.54324" width="254.99951" height="2" fill="#3f3d56"/><rect x="471" y="550" width="28" height="28" fill="#892cdc"/><path d="M546.41456,684.72838h-34v-34h34Zm-32.52174-1.47826H544.9363V652.20664H513.89282Z" transform="translate(-30.41456 -122.72838)" fill="#3f3d56"/><rect x="796" y="22" width="28" height="28" fill="#892cdc"/><path d="M871.41456,156.72838h-34v-34h34Zm-32.52174-1.47826H869.9363V124.20664H838.89282Z" transform="translate(-30.41456 -122.72838)" fill="#3f3d56"/><rect x="1078" y="550" width="28" height="28" fill="#892cdc"/><path d="M1153.41456,684.72838h-34v-34h34Zm-32.52174-1.47826h31.04348V652.20664h-31.04348Z" transform="translate(-30.41456 -122.72838)" fill="#3f3d56"/><path d="M1087.58593,354.6866h-2.37862V289.525a37.71374,37.71374,0,0,0-37.71385-37.71377H909.44A37.71373,37.71373,0,0,0,871.72613,289.525V647.00639A37.71374,37.71374,0,0,0,909.44,684.72017h138.05348a37.71374,37.71374,0,0,0,37.71385-37.71378V401.06969h2.37862Z" transform="translate(-30.41456 -122.72838)" fill="#3f3d56"/><path d="M1077.176,291.74159v356.96a28.16523,28.16523,0,0,1-28.16016,28.17H910.296a28.16511,28.16511,0,0,1-28.16-28.17v-356.96a28.163,28.163,0,0,1,28.16-28.16h16.83a13.3792,13.3792,0,0,0,12.39,18.43h79.09a13.37908,13.37908,0,0,0,12.38995-18.43h18.02A28.16308,28.16308,0,0,1,1077.176,291.74159Z" transform="translate(-30.41456 -122.72838)" fill="#892cdc"/><rect x="928.57968" y="376.21769" width="41.32357" height="12.24586" fill="#3f3d56"/><rect x="878.62133" y="280.8749" width="141.24028" height="5.24823" fill="#3f3d56"/><rect x="878.62133" y="297.49429" width="141.24028" height="5.24823" fill="#3f3d56"/><rect x="878.62133" y="314.11367" width="141.24028" height="5.24823" fill="#3f3d56"/><rect x="878.62133" y="330.73306" width="141.24028" height="5.24823" fill="#3f3d56"/><rect x="878.62133" y="347.35244" width="141.24028" height="5.24823" fill="#3f3d56"/><rect x="929.68352" y="211.17873" width="24.49173" height="24.49173" fill="#f2f2f2"/><path d="M969.47386,340.03163v29.74h29.74v-29.74Zm28.45,28.45h-27.16v-27.16h27.16Z" transform="translate(-30.41456 -122.72838)" fill="#3f3d56"/><path d="M1077.176,610.58162v38.12a28.16523,28.16523,0,0,1-28.16016,28.17H910.296a28.16511,28.16511,0,0,1-28.16-28.17v-192.21l116.87,92.33,2,1.58,21.74,17.17,2.03,1.61Z" transform="translate(-30.41456 -122.72838)" opacity="0.1"/><circle cx="937.24147" cy="498.70691" r="43.86783" fill="#f2f2f2"/><path d="M350.58593,777.27162a87,87,0,1,1,87-87A87.09858,87.09858,0,0,1,350.58593,777.27162Zm0-172a85,85,0,1,0,85,85A85.09629,85.09629,0,0,0,350.58593,605.27162Z" transform="translate(-30.41456 -122.72838)" fill="#3f3d56"/><path d="M980.58593,655.27162a55,55,0,1,1,55-55A55.06223,55.06223,0,0,1,980.58593,655.27162Zm0-108a53,53,0,1,0,53,53A53.05963,53.05963,0,0,0,980.58593,547.27162Z" transform="translate(-30.41456 -122.72838)" fill="#3f3d56"/></svg>

<svg id="b6117b06-2b45-45bc-b789-4a82ab6612dd" data-name="Layer 1" xmlns="http://www.w3.org/2000/svg" width="1139.171" height="654.543" viewBox="0 0 1139.171 654.543"><circle cx="246.827" cy="521.765" r="59.243" fill="#f2f2f2"/><circle cx="256.46" cy="513.095" r="59.243" fill="#892cdc"/><path fill="#3f3d56" d="M304.171 447.543h733v2h-733z"/><path d="M714.207 141.38h-260.17v-5.362h-117.97v5.363H74.825a17.599 17.599 0 00-17.599 17.598v356.252a17.599 17.599 0 0017.599 17.599h639.382a17.599 17.599 0 0017.599-17.599V158.98a17.599 17.599 0 00-17.599-17.598z" transform="translate(-30.415 -122.728)" fill="#3f3d56"/><path fill="#892cdc" d="M50.406 49.754h627.391v353.913H50.406z"/><circle cx="363.565" cy="33.667" r="6.435" fill="#892cdc"/><path opacity=".1" d="M498.374 403.667H50.406V49.754l447.968 353.913z"/><circle cx="148.574" cy="316.876" r="60.307" fill="#f2f2f2"/><path fill="#3f3d56" d="M509.953 240.622h58.605v12.246h-58.605zm-70.851-95.343h200.307v5.248H439.102zm0 16.619h200.307v5.248H439.102zm0 16.62h200.307v5.248H439.102zm0 16.619h200.307v5.248H439.102zm0 16.619h200.307v5.248H439.102z"/><path fill="#f2f2f2" d="M614.917 56.934h24.492v24.492h-24.492z"/><path d="M681.195 215.525h-29.74v-29.74h29.74zm-28.447-1.293h27.154v-27.154h-27.154zm96.674 305.728h-61.23v-4.411a.875.875 0 00-.874-.875h-20.993a.875.875 0 00-.875.875v4.411h-13.12v-4.411a.875.875 0 00-.875-.875h-20.993a.875.875 0 00-.875.875v4.411h-13.12v-4.411a.875.875 0 00-.875-.875h-20.993a.875.875 0 00-.875.875v4.411h-13.12v-4.411a.875.875 0 00-.875-.875h-20.993a.875.875 0 00-.875.875v4.411h-13.12v-4.411a.875.875 0 00-.875-.875h-20.993a.875.875 0 00-.875.875v4.411h-13.12v-4.411a.875.875 0 00-.875-.875H487.01a.875.875 0 00-.874.875v4.411h-13.121v-4.411a.875.875 0 00-.875-.875H307.696a.875.875 0 00-.875.875v4.411h-13.12v-4.411a.875.875 0 00-.875-.875h-20.993a.875.875 0 00-.875.875v4.411h-13.12v-4.411a.875.875 0 00-.875-.875H235.97a.875.875 0 00-.875.875v4.411h-13.12v-4.411a.875.875 0 00-.875-.875h-20.993a.875.875 0 00-.874.875v4.411h-13.121v-4.411a.875.875 0 00-.875-.875h-20.993a.875.875 0 00-.874.875v4.411h-13.12v-4.411a.875.875 0 00-.876-.875h-20.993a.875.875 0 00-.874.875v4.411h-13.12v-4.411a.875.875 0 00-.876-.875H92.52a.875.875 0 00-.875.875v4.411H51.407a20.993 20.993 0 00-20.992 20.993v9.493a20.993 20.993 0 0020.992 20.992h698.015a20.993 20.993 0 0020.993-20.992v-9.493a20.993 20.993 0 00-20.993-20.993zm-555.836-42.688a76 76 0 1176-76 76.086 76.086 0 01-76 76zm0-150a74 74 0 1074 74 74.084 74.084 0 00-74-74z" transform="translate(-30.415 -122.728)" fill="#3f3d56"/><path fill="#3f3d56" d="M586.171 32.543h255v2h-255zm-180 528h733v2h-733zm-213.499 92h255v2h-255z"/><path fill="#892cdc" d="M471 550h28v28h-28z"/><path d="M546.415 684.728h-34v-34h34zm-32.522-1.478h31.043v-31.043h-31.043z" transform="translate(-30.415 -122.728)" fill="#3f3d56"/><path fill="#892cdc" d="M796 22h28v28h-28z"/><path d="M871.415 156.728h-34v-34h34zm-32.522-1.478h31.043v-31.043h-31.043z" transform="translate(-30.415 -122.728)" fill="#3f3d56"/><path fill="#892cdc" d="M1078 550h28v28h-28z"/><path d="M1153.415 684.728h-34v-34h34zm-32.522-1.478h31.043v-31.043h-31.043zm-33.307-328.563h-2.379v-65.162a37.714 37.714 0 00-37.714-37.714H909.44a37.714 37.714 0 00-37.714 37.714v357.481a37.714 37.714 0 0037.714 37.714h138.053a37.714 37.714 0 0037.714-37.714V401.07h2.379z" transform="translate(-30.415 -122.728)" fill="#3f3d56"/><path d="M1077.176 291.742v356.96a28.165 28.165 0 01-28.16 28.17h-138.72a28.165 28.165 0 01-28.16-28.17v-356.96a28.163 28.163 0 0128.16-28.16h16.83a13.38 13.38 0 0012.39 18.43h79.09a13.38 13.38 0 0012.39-18.43h18.02a28.163 28.163 0 0128.16 28.16z" transform="translate(-30.415 -122.728)" fill="#892cdc"/><path fill="#3f3d56" d="M928.58 376.218h41.324v12.246H928.58zm-49.959-95.343h141.24v5.248h-141.24zm0 16.619h141.24v5.248h-141.24zm0 16.62h141.24v5.248h-141.24zm0 16.619h141.24v5.248h-141.24zm0 16.619h141.24v5.248h-141.24z"/><path fill="#f2f2f2" d="M929.684 211.179h24.492v24.492h-24.492z"/><path d="M969.474 340.032v29.74h29.74v-29.74zm28.45 28.45h-27.16v-27.16h27.16z" transform="translate(-30.415 -122.728)" fill="#3f3d56"/><path d="M1077.176 610.582v38.12a28.165 28.165 0 01-28.16 28.17h-138.72a28.165 28.165 0 01-28.16-28.17v-192.21l116.87 92.33 2 1.58 21.74 17.17 2.03 1.61z" transform="translate(-30.415 -122.728)" opacity=".1"/><circle cx="937.241" cy="498.707" r="43.868" fill="#f2f2f2"/><path d="M350.586 777.272a87 87 0 1187-87 87.099 87.099 0 01-87 87zm0-172a85 85 0 1085 85 85.096 85.096 0 00-85-85zm630 50a55 55 0 1155-55 55.062 55.062 0 01-55 55zm0-108a53 53 0 1053 53 53.06 53.06 0 00-53-53z" transform="translate(-30.415 -122.728)" fill="#3f3d56"/></svg>
